X: 13
T:Cold Frosty Morning
M:4/4
L:1/8
C:
S:AABB form
R:Key of G
K:ADor
|:E2|"Am"A2cBA2A2|ABcde2D2|"G"G2BAG2G2|GABcd2E2|
"Am"A2cBA2A2|ABcde4|"Am"cBAc "G"BAGB|"Am"A2E2A2:|
|:z2|"Am"e2a2a2a2|abage4|"G"e2f2g2f2|"Am"edcd"E7"e4|!
"Am"A2A2"F"c2c2|"Dm"d2d2"Em"e2e2|"Am"cBAc "G"BAGB|"Am"A2E2A2:|
